X:1
T:Title
%%score { ( 1 3 ) | ( 2 4 ) }
L:1/8
Q:1/4=100
M:4/4
K:Ab
V:1 treble nm="Grand Piano"
V:3 treble 
V:2 bass 
V:4 bass 
V:1
 [CA]>[B,G] [CA]>[DB] [Ec]2 [CE]2 | [CA]>[DG] [EA]>[Ec] B4 | c>B c>d e2 c2 | z4 B4 | %4
w: Chester~G.~Allen * * * * *||||
 [CA]>[B,G] [CA]>[DB] [Ec]2 E2 | [FB]>[F=A] [FB]>[Fc] [Fd]2 B2 | c>e d>c [Fc]>[FB] [Fd]>[FB] | %7
w: |||
 [EA]2 [DG]2 [CA]4 | e3 f e2 c2 | B>=A B>c [C_A]2 [CE]2 | e3 f e2 c2 | d>e d>c z2 D2 | %12
w: |||||
 [CA]>[CG] [CA]>[DB] [Ec]2 [EA]2 | [FB]>[F=A] [FB]>[Fc] [Fd]2 B2 | c>e d>c [Fc]>[FB] [Fd]>[FB] | %15
w: |||
 [EA]2 [DG]2 [CA]4 |] %16
w: |
V:2
 [A,,E,]>[A,,E,] [A,,E,]>[A,,E,] [A,,A,]2 [A,,A,]2 | [A,,E,]>[A,,E,] [C,A,]>[A,,A,] [E,G,E]4 | %2
 [A,E]>[G,B,E] [A,E]>[A,B,E] [A,CA]2[K:bass] [A,E]2 | z4 E2 z2 | %4
 [A,,E,]>[A,,E,] [A,,E,]>[A,,E,] [A,,A,]2 [C,A,]2 | %5
 [D,A,]>[D,A,] [D,A,]>[C,=A,] [B,,B,]2 [E,G,E]2 | %6
 [A,E]>[A,CE] [G,B,E]>[A,E] [D,A,]>[D,A,] [D,B,]>[D,D] | [E,C]2 [E,B,]2 [A,,A,]4 | %8
 [A,CA]3 [A,DA] [A,CA]2[K:bass] [A,E]2 | [E,G,D]>[E,_G,C] [E,=G,D]>[E,G,E] [A,,A,]2 [A,,A,]2 | %10
 [A,CA]3 [A,DA] [A,CA]2[K:bass] [A,E]2 | z4 E2 z2 | %12
 [A,,E,]>[A,,E,] [A,,E,]>[A,,E,] [A,,A,]2 [C,A,]2 | %13
 [D,A,]>[D,A,] [D,A,]>[C,=A,] [B,,B,]2 [E,G,E]2 | %14
 [A,E]>[A,CE] [G,B,E]>[A,E] [D,A,]>[D,A,] [D,B,]>[D,D] | [E,C]2 [E,B,]2 [A,,A,]4 |] %16
V:3
 x8 | x8 | x8 | B>A B>c z2 D2 | x8 | x8 | x8 | x8 | x8 | x8 | x8 | z4 B4 | x8 | x8 | x8 | x8 |] %16
V:4
 x8 | x8 | x6[K:bass] x2 | [E,G,E]>[E,F,E] [E,G,E]>[E,A,E] [E,G,]4 | x8 | x8 | x8 | x8 | %8
 x6[K:bass] x2 | x8 | x6[K:bass] x2 | [E,B,E]>[E,CE] [E,B,E]>[E,A,E] [E,G,]4 | x8 | x8 | x8 | x8 |] %16

